X:246
T:Kate and Rose's
S:Gabrielle Letourneau
R:reel
M:4/4
L:1/8
K:Dmin
E |: FD (3DDD AD (3DDD | dDDd dcAG | FD (3DDD AGFD | EDCD EFGE |
FD (3DDD AD (3DDD | dDDd dcAG | F2 cF dFcF |1 E3 E EDCE :|2E3E EDCe |
|: [K:Dmixo]fd (3ddd fdad | f3f fede | fd (3ddd fdad | cBAB cBAe |
fd (3ddd fdad | f3f fedB | c2 gc acgc |1 B3B BAGe :|2 B3B BAGE |]
